<?xml version="1.0" encoding="UTF-8"?>
<map version="1.10" tiledversion="1.11.2" orientation="orthogonal" renderorder="right-down" width="40" height="23" tilewidth="16" tileheight="16" infinite="0" nextlayerid="6" nextobjectid="140">
 <tileset firstgid="1" source="Pixel_adv.tsx"/>
 <layer id="1" name="Background" width="40" height="23">
  <properties>
   <property name="BackgroundColor" value="Blue"/>
  </properties>
  <data encoding="csv">
112,112,112,112,112,112,112,112,112,112,112,112,112,112,112,112,112,112,112,112,112,112,112,112,112,112,112,112,112,112,112,112,112,112,112,112,112,112,112,112,
112,112,112,112,112,112,112,112,112,112,112,112,112,112,112,112,112,112,112,112,112,112,112,112,112,112,112,112,112,112,112,112,112,112,112,112,112,112,112,112,
112,112,112,112,112,112,112,112,112,112,112,112,112,112,112,112,112,112,112,112,112,112,112,112,112,112,112,112,112,112,112,112,112,112,112,112,112,112,112,112,
112,112,112,4,46,46,46,46,46,46,46,46,46,46,46,46,46,46,46,46,46,46,46,46,46,46,46,46,46,46,46,46,46,46,46,46,5,112,112,112,
112,112,112,25,0,0,0,0,0,0,0,0,0,0,0,0,0,0,0,0,0,0,0,0,0,0,0,0,0,0,0,0,0,0,0,0,23,112,112,112,
112,112,112,25,0,0,0,0,0,0,0,0,0,0,0,0,0,0,0,0,0,0,0,0,0,0,0,0,0,0,0,0,0,0,0,0,23,112,112,112,
112,112,112,25,0,0,0,0,0,0,0,0,0,0,0,0,0,0,0,0,0,0,0,0,0,0,0,0,0,0,0,0,0,0,0,0,23,112,112,112,
112,112,112,25,62,63,64,0,0,0,0,0,0,0,0,0,0,0,0,0,0,0,0,0,0,0,0,0,0,0,0,0,0,0,0,0,23,112,112,112,
112,112,112,25,0,0,0,0,0,0,0,0,0,0,0,0,0,0,0,0,0,0,0,0,0,0,0,0,0,0,0,0,0,0,0,0,23,112,112,112,
112,112,112,25,0,0,0,0,0,0,0,0,0,0,0,0,0,0,0,0,0,0,0,0,0,0,0,0,0,18,19,19,20,0,0,0,23,112,112,112,
112,112,112,25,62,63,64,0,0,0,0,0,194,195,195,196,0,0,0,0,0,0,0,0,0,0,0,0,0,0,0,0,0,0,0,0,23,112,112,112,
112,112,112,25,0,0,0,0,0,0,0,0,0,0,0,0,0,0,0,0,0,0,0,0,0,0,0,0,0,0,0,0,0,0,0,0,23,112,112,112,
112,112,112,25,0,0,0,0,0,0,0,0,0,0,0,0,0,0,0,0,0,194,195,195,196,0,0,0,0,18,19,19,20,95,96,97,23,112,112,112,
112,112,112,25,62,63,64,0,0,0,0,0,0,0,0,0,0,0,0,0,0,0,0,0,0,0,0,0,0,0,0,0,0,117,118,119,23,112,112,112,
112,112,112,25,0,0,0,0,0,0,0,0,0,0,0,0,0,0,0,0,0,0,0,0,0,0,0,0,0,0,0,0,0,117,118,119,23,112,112,112,
112,112,112,25,123,0,0,0,0,0,0,0,0,0,0,0,0,0,0,0,0,0,0,0,0,0,0,0,0,0,0,0,0,117,118,119,23,112,112,112,
112,112,112,25,95,96,96,96,96,97,0,0,0,0,0,0,0,0,0,0,0,0,0,0,0,0,0,95,96,96,96,96,97,117,118,119,23,112,112,112,
112,112,112,25,117,118,118,118,118,119,0,0,0,0,0,0,0,0,0,0,0,0,0,0,0,0,0,117,118,118,118,118,119,117,118,119,23,112,112,112,
112,112,112,25,139,140,140,140,140,141,0,0,0,0,0,0,0,0,0,0,0,0,0,0,0,0,0,139,140,140,140,140,141,139,140,141,23,112,112,112,
112,112,112,26,2,2,2,2,2,2,2,2,2,2,2,2,2,2,2,2,2,2,2,2,2,2,2,2,2,2,2,2,2,2,2,2,27,112,112,112,
112,112,112,112,112,112,112,112,112,112,112,112,112,112,112,112,112,112,112,112,112,112,112,112,112,112,112,112,112,112,112,112,112,112,112,112,112,112,112,112,
112,112,112,112,112,112,112,112,112,112,112,112,112,112,112,112,112,112,112,112,112,112,112,112,112,112,112,112,112,112,112,112,112,112,112,112,112,112,112,112,
112,112,112,112,112,112,112,112,112,112,112,112,112,112,112,112,112,112,112,112,112,112,112,112,112,112,112,112,112,112,112,112,112,112,112,112,112,112,112,112
</data>
 </layer>
 <objectgroup id="2" name="SpawnPoint">
  <object id="9" name="Player" type="Player" x="128" y="224" width="32" height="32"/>
  <object id="110" name="Kiwi" type="Fruit" x="480" y="112" width="32" height="32"/>
  <object id="111" x="256" y="96" width="16"/>
  <object id="113" name="Bananas" type="Fruit" x="80" y="128" width="32" height="32"/>
  <object id="117" name="Apple" type="Fruit" x="80" y="176" width="32" height="32"/>
  <object id="119" name="Apple" type="Fruit" x="80" y="80" width="32" height="32"/>
  <object id="121" type="Saw" x="288" y="144" width="32" height="32">
   <properties>
    <property name="isVertical" type="bool" value="true"/>
    <property name="offNeg" type="float" value="5"/>
    <property name="offPos" type="float" value="6"/>
   </properties>
  </object>
  <object id="123" type="Checkpoint" x="512" y="128" width="64" height="64"/>
  <object id="127" name="Chicken" type="Chicken" x="352" y="272" width="32" height="32">
   <properties>
    <property name="offNeg" type="float" value="12"/>
    <property name="offPos" type="float" value="5"/>
   </properties>
  </object>
  <object id="132" name="Kiwi" type="Fruit" x="480" y="160" width="32" height="32"/>
  <object id="134" name="Cherries" type="Fruit" x="192" y="128" width="32" height="32"/>
  <object id="135" name="Cherries" type="Fruit" x="224" y="128" width="32" height="32"/>
  <object id="136" name="Cherries" type="Fruit" x="208" y="96" width="32" height="32"/>
  <object id="137" name="Cherries" type="Fruit" x="336" y="160" width="32" height="32"/>
  <object id="138" name="Cherries" type="Fruit" x="368" y="160" width="32" height="32"/>
  <object id="139" name="Cherries" type="Fruit" x="352" y="128" width="32" height="32"/>
 </objectgroup>
 <objectgroup id="4" name="Colisions">
  <object id="30" x="64" y="256" width="96" height="48"/>
  <object id="31" x="432" y="256" width="96" height="48"/>
  <object id="34" x="64" y="304" width="512" height="16"/>
  <object id="39" x="64" y="240" width="16" height="16"/>
  <object id="40" x="48" y="64" width="16" height="240"/>
  <object id="46" x="64" y="48" width="512" height="16"/>
  <object id="47" x="576" y="64" width="16" height="240"/>
  <object id="106" x="336" y="192" width="64" height="16"/>
  <object id="122" x="528" y="192" width="48" height="112"/>
  <object id="133" x="192" y="160" width="64" height="16"/>
 </objectgroup>
 <objectgroup id="5" name="xxx">
  <object id="78" type="Platform" x="64" y="112" width="48" height="5"/>
  <object id="128" type="Platform" x="64" y="208" width="48" height="5"/>
  <object id="129" type="Platform" x="64" y="160" width="48" height="5"/>
  <object id="130" type="Platform" x="464" y="144" width="64" height="5"/>
  <object id="131" type="Platform" x="464" y="192" width="64" height="5"/>
 </objectgroup>
</map>
